X:1
T:La Roulotte
C: fichier abc : Bernard Loffet
L:1/8
Q:380
K:C
M:2/2
 [A2A,,2][B2A,2] [c2A,,2][A2A,2] | [B2E,,2][c2E,2] [d2E,,2][B2E,2] | [A2A,,2][B2A,2] [c2A,,2][A2A,2] | \
 [B2E,,2]E,2 [B2E,,2]E,2 | [A2A,,2][B2A,2] [c2A,,2][A2A,2] | [B2E,,2][c2E,2] [d2E,,2][B2E,2] | \
 [A2A,,2][B2A,2] [c2A,,2][A2A,2] | [e2E,,2]E,2 [e2E,,2]E,2 | [f2D,,2][e2D,2] [d2D,,2][a2D,2] | \
 [e2E,,2][d2E,2] [e2E,,2]E,2 | [f2D,,2][e2D,2] [d2D,,2][a2D,2] | [e2E,,2]E,2 [e2E,,2]E,2 | \
 [f2D,,2][e2D,2] [d2D,,2][a2D,2] | [e2E,,2][d2E,2] [e2E,,2]E,2 | [e2E,,2]E,2 [d2E,,2]E,2 | \
 [c2E,,2]E,2 [B2E,,2]E,2 | \
W:Created with TablEdit http://www.tabledit.com/ by Bernard Loffet
